assets/logo.svg

<svg height="257" viewBox="0 0 257 257" width="257" xmlns="http://www.w3.org/2000/svg" xmlns:xlink="http://www.w3.org/1999/xlink"><defs><circle id="a" cx="125.5" cy="125.5" r="125.5"/><mask id="b" fill="#fff"><use fill="none" xlink:href="#a"/></mask></defs><g fill="none" fill-rule="evenodd" transform="translate(3 3)"><use fill="#fe5003" xlink:href="#a"/><g fill="#fff" mask="url(#b)"><g transform="translate(76 53)"><path d="m100.32554 110.026618c-.146377-.717822-.7318838-1.148515-1.317391-1.435644l-9.2217392-4.30693c-.2927536-.143565-.731884-.287129-1.1710145-.143565-.731884 0-1.6101449.430693-2.0492753 1.148515-6.1478261 10.049505-12.1492754 14.643565-22.6884058 17.227723-2.6347826.574257-5.1231884 1.004951-7.6115942 1.148515-19.1753623.717822-27.3724638-15.792079-30.8855073-29.8613863-.1463768-.5742574-.5855072-1.1485148-1.1710145-1.5792079-.4391304-.2871287-.8782608-.430693-1.3173913-.2871287-.1463768 0-.2927536 0-.4391304.1435644l-10.3927536 2.5841584c-.5855073.1435643-1.1710145.5742574-1.4637681 1.1485148-.2927537.5742575-.4391305 1.2920792-.2927537 1.8663367 7.1724638 26.5594056 22.1028986 40.6287126 43.1811595 40.7722776 2.1956521.430693 5.1231884 2.153465 7.4652174 3.445544 2.4884058 1.435644 4.0985507 2.440594 5.7086956 2.440594.1463768 0 .4391304 0 .5855073-.143564 1.7565217-.430693 2.9275362-2.153465 4.5376811-4.881188 1.1710145-1.866337 2.6347826-4.019802 4.0985507-5.59901 10.2463768-4.163367 17.2724638-10.480198 24.1521743-21.678218.43913-.717822.43913-1.435644.292753-2.009901z"/><path d="m95.4730565 61.4455446c.2927536-.5742575.4391305-1.2920793.2927536-1.8663367-8.6362318-35.0297029-31.6173913-39.480198-44.6449275-38.9059406-1.6101449 0-3.2202898.1435644-4.8304348.4306931h-.2927536c-.4391304 0-1.0246377 0-1.6101449-.1435644-1.4637681-3.0148514-3.0739131-5.7425742-4.9768116-8.0396039-3.5130435-4.30693071-8.6362319-8.61386141-15.2231884-12.49009903-.2927537-.28712871-.7318841-.43069307-1.3173913-.43069307-.1463768 0-.4391305 0-.5855073.14356436-.731884.14356435-1.3173913.57425742-1.6101449 1.2920792l-2.7811594 5.31188119c-.5855073 1.0049505-.2927536 2.44059406.731884 3.15841584 2.4884058 1.86633661 4.5376812 3.87623761 6.0014493 5.74257431 1.9028986 2.440594 3.6594203 5.4554455 4.9768116 9.0445544-.7318841.5742574-1.3173913 1.0049505-2.0492754 1.2920792-13.4666666 4.4504951-34.69130431 18.0891089-25.17681155 56.2772277.14637681.7178218.58550724 1.1485149 1.17101449 1.579208.43913043.2871287.87826087.430693 1.46376811.2871287.14637682 0 .29275363 0 .43913044-.1435644l88.41159421-21.5346535c.731884 0 1.3173913-.430693 1.6101449-1.0049504zm-51.9637681 1.5792079c-2.4884058.5742574-4.9768116-.8613862-5.7086956-3.3019802-.5855073-2.4405941.8782608-4.8811881 3.3666666-5.5990099 2.4884058-.5742574 4.9768116.8613861 5.7086957 3.3019802.5855072 2.440594-.8782609 4.8811881-3.3666667 5.5990099zm4.2449275-16.3663367c-2.4884058.5742575-4.9768116-.8613861-5.7086956-3.3019802-.5855073-2.440594.8782609-4.8811881 3.3666667-5.5990099 2.4884058-.5742574 4.9768115.8613862 5.7086956 3.3019802.5855073 2.5841585-.8782609 5.0247525-3.3666667 5.5990099zm11.5637682 12.4900991c-2.4884058.5742574-4.9768116-.8613862-5.7086957-3.3019802-.5855072-2.4405941.8782609-4.8811882 3.3666667-5.4554456s4.9768116.8613861 5.7086956 3.3019802c.5855073 2.2970297-.8782608 4.8811881-3.3666666 5.4554456zm4.2449275-16.3663367c-2.4884058.5742574-4.9768116-.8613861-5.7086957-3.3019802-.5855072-2.440594.8782609-4.8811881 3.3666667-5.5990099 2.4884058-.5742574 4.9768116.8613862 5.7086957 3.3019802.5855072 2.5841584-.8782609 5.0247525-3.3666667 5.5990099zm11.5637681 12.490099c-2.4884058.5742575-4.9768116-.8613861-5.5623188-3.3019802-.5855073-2.440594.8782608-4.8811881 3.3666666-5.4554455s4.9768116.8613861 5.7086957 3.3019802c.4391304 2.440594-1.0246377 4.8811881-3.5130435 5.4554455z"/></g></g></g></svg>

<?xml version="1.0" encoding="UTF-8"?>
<svg width="257px" height="257px" viewBox="0 0 257 257" version="1.1" xmlns="http://www.w3.org/2000/svg" xmlns:xlink="http://www.w3.org/1999/xlink">
    <!-- Generator: Sketch 50.2 (55047) - http://www.bohemiancoding.com/sketch -->
    <title>nutshell/logo</title>
    <desc>Created with Sketch.</desc>
    <defs>
        <circle id="path-1" cx="125.5" cy="125.5" r="125.5"></circle>
    </defs>
    <g id="nutshell/logo" stroke="none" stroke-width="1" fill="none" fill-rule="evenodd">
        <g id="Group-2" transform="translate(3.000000, 3.000000)">
            <mask id="mask-2" fill="white">
                <use xlink:href="#path-1"></use>
            </mask>
            <use id="Mask" fill="#FE5003" xlink:href="#path-1"></use>
            <g id="Group" mask="url(#mask-2)" fill="#FFFFFF">
                <g transform="translate(76.000000, 53.000000)" id="Shape">
                    <path d="M100.32554,110.026618 C100.179163,109.308796 99.5936562,108.878103 99.008149,108.590974 L89.7864098,104.284044 C89.4936562,104.140479 89.0545258,103.996915 88.6153953,104.140479 C87.8835113,104.140479 87.0052504,104.571172 86.56612,105.288994 C80.4182939,115.338499 74.4168446,119.932559 63.8777142,122.516717 C61.2429316,123.090974 58.7545258,123.521668 56.26612,123.665232 C37.0907577,124.383054 28.8936562,107.873153 25.3806127,93.8038457 C25.2342359,93.2295883 24.7951055,92.6553309 24.2095982,92.2246378 C23.7704678,91.9375091 23.3313374,91.7939448 22.8922069,91.9375091 C22.7458301,91.9375091 22.5994533,91.9375091 22.4530765,92.0810735 L12.0603229,94.6652319 C11.4748156,94.8087962 10.8893084,95.2394893 10.5965548,95.8137467 C10.3038011,96.3880042 10.1574243,97.1058259 10.3038011,97.6800834 C17.4762649,124.239489 32.4066997,138.308796 53.4849606,138.452361 C55.6806127,138.883054 58.608149,140.605826 60.950178,141.897905 C63.4385838,143.333549 65.0487287,144.338499 66.6588736,144.338499 C66.8052504,144.338499 67.098004,144.338499 67.2443809,144.194935 C69.0009026,143.764242 70.1719171,142.04147 71.782062,139.313747 C72.9530765,137.44741 74.4168446,135.293945 75.8806127,133.714737 C86.1269895,129.55137 93.1530765,123.234539 100.032787,112.036519 C100.471917,111.318697 100.471917,110.600875 100.32554,110.026618 L100.32554,110.026618 Z"></path>
                    <path d="M95.4730565,61.4455446 C95.7658101,60.8712871 95.912187,60.1534653 95.7658101,59.5792079 C87.1295783,24.549505 64.1484188,20.0990099 51.1208826,20.6732673 C49.5107377,20.6732673 47.9005928,20.8168317 46.2904478,21.1039604 L45.9976942,21.1039604 C45.5585638,21.1039604 44.9730565,21.1039604 44.3875493,20.960396 C42.9237812,17.9455446 41.3136362,15.2178218 39.4107377,12.9207921 C35.8976942,8.61386139 30.7745058,4.30693069 24.1875493,0.430693069 C23.8947956,0.143564356 23.4556652,0 22.870158,0 C22.7237812,0 22.4310275,0 22.2846507,0.143564356 C21.5527667,0.287128713 20.9672594,0.717821782 20.6745058,1.43564356 L17.8933464,6.74752475 C17.3078391,7.75247525 17.6005928,9.18811881 18.6252304,9.90594059 C21.1136362,11.7722772 23.1629116,13.7821782 24.6266797,15.6485149 C26.5295783,18.0891089 28.2861,21.1039604 29.6034913,24.6930693 C28.8716072,25.2673267 28.2861,25.6980198 27.5542159,25.9851485 C14.0875493,30.4356436 -7.13708841,44.0742574 2.37740435,82.2623762 C2.52378116,82.980198 2.96291159,83.4108911 3.54841884,83.8415842 C3.98754927,84.1287129 4.42667971,84.2722772 5.01218695,84.1287129 C5.15856377,84.1287129 5.30494058,84.1287129 5.45131739,83.9851485 L93.8629116,62.450495 C94.5947956,62.450495 95.1803029,62.019802 95.4730565,61.4455446 L95.4730565,61.4455446 Z M43.5092884,63.0247525 C41.0208826,63.5990099 38.5324768,62.1633663 37.8005928,59.7227723 C37.2150855,57.2821782 38.6788536,54.8415842 41.1672594,54.1237624 C43.6556652,53.549505 46.144071,54.9851485 46.8759551,57.4257426 C47.4614623,59.8663366 45.9976942,62.3069307 43.5092884,63.0247525 L43.5092884,63.0247525 Z M47.7542159,46.6584158 C45.2658101,47.2326733 42.7774043,45.7970297 42.0455203,43.3564356 C41.460013,40.9158416 42.9237812,38.4752475 45.412187,37.7574257 C47.9005928,37.1831683 50.3889985,38.6188119 51.1208826,41.0594059 C51.7063899,43.6435644 50.2426217,46.0841584 47.7542159,46.6584158 L47.7542159,46.6584158 Z M59.3179841,59.1485149 C56.8295783,59.7227723 54.3411725,58.2871287 53.6092884,55.8465347 C53.0237812,53.4059406 54.4875493,50.9653465 56.9759551,50.3910891 C59.4643609,49.8168317 61.9527667,51.2524752 62.6846507,53.6930693 C63.270158,55.990099 61.8063899,58.5742574 59.3179841,59.1485149 L59.3179841,59.1485149 Z M63.5629116,42.7821782 C61.0745058,43.3564356 58.5861,41.9207921 57.8542159,39.480198 C57.2687087,37.039604 58.7324768,34.5990099 61.2208826,33.8811881 C63.7092884,33.3069307 66.1976942,34.7425743 66.9295783,37.1831683 C67.5150855,39.7673267 66.0513174,42.2079208 63.5629116,42.7821782 L63.5629116,42.7821782 Z M75.1266797,55.2722772 C72.6382739,55.8465347 70.1498681,54.4108911 69.5643609,51.970297 C68.9788536,49.529703 70.4426217,47.0891089 72.9310275,46.5148515 C75.4194333,45.9405941 77.9078391,47.3762376 78.6397232,49.8168317 C79.0788536,52.2574257 77.6150855,54.6980198 75.1266797,55.2722772 L75.1266797,55.2722772 Z"></path>
                </g>
            </g>
        </g>
    </g>
</svg>
